X: 185
T: Da Liancheng
L: 1/8
M: 2/4
K: C
c2G A [I:setbarnb 1]| 
c4 | 
e B A G | 
E4 | 
c de2 | 
d ec2 | 
e B A G | 
E4 | 
c Ac2 | 
A GE2 | 
c A c c | 
A GE2 | 
c d e c | 
d4 | 
c de2 | 
d ec2 | 
e2G A | 
c2B A | 
G4 |]

@@@ Tune index: 9059
